tools/download-figma-icons/icons/solid/reset.svg

<svg width="24" height="24" viewBox="0 0 24 24" fill="none" xmlns="http://www.w3.org/2000/svg">
<path d="M12 0C5.37 0 0 5.37 0 12C0 18.63 5.37 24 12 24C18.63 24 24 18.63 24 12C24 5.37 18.63 0 12 0ZM20.8725 13.5C20.16 17.7525 16.455 21 12 21C7.035 21 3 16.965 3 12C3 11.5875 3.3375 11.25 3.75 11.25C4.1625 11.25 4.5 11.5875 4.5 12C4.5 16.1325 7.8675 19.5 12 19.5C17.6175 19.5 19.5 14.235 19.5 12C19.5 10.0425 18.7425 8.1075 17.2875 6.66C14.625 4.02 10.44 3.8025 7.515 6H8.25C8.6625 6 9 6.3375 9 6.75C9 7.1625 8.6625 7.5 8.25 7.5H6C5.5875 7.5 5.25 7.1625 5.25 6.75V4.5C5.25 4.0875 5.5875 3.75 6 3.75C6.4125 3.75 6.75 4.0875 6.75 4.5V4.71C10.2375 2.1675 15.1875 2.4675 18.345 5.595C20.2725 7.5 21.2025 10.1325 20.97 12.7275C20.9475 12.9825 20.9175 13.245 20.8725 13.5ZM6.75 12C6.75 11.5875 7.0875 11.25 7.5 11.25H11.64L14.415 7.785C14.67 7.4625 15.1425 7.4025 15.465 7.665C15.795 7.92 15.8475 8.3925 15.585 8.715L12.585 12.4725C12.4425 12.645 12.2325 12.75 12 12.75H7.5C7.0875 12.75 6.75 12.4125 6.75 12Z" fill="black"/>
</svg>

<svg xmlns="http://www.w3.org/2000/svg" width="24" height="24" fill="none" viewBox="0 0 24 24"><path fill="currentColor" d="M12 0C5.37 0 0 5.37 0 12s5.37 12 12 12 12-5.37 12-12S18.63 0 12 0m8.872 13.5C20.16 17.753 16.456 21 12 21c-4.965 0-9-4.035-9-9 0-.412.337-.75.75-.75.412 0 .75.338.75.75 0 4.133 3.367 7.5 7.5 7.5 5.618 0 7.5-5.265 7.5-7.5a7.52 7.52 0 0 0-2.212-5.34C14.625 4.02 10.44 3.803 7.515 6h.735c.412 0 .75.338.75.75s-.338.75-.75.75H6a.75.75 0 0 1-.75-.75V4.5c0-.412.338-.75.75-.75s.75.338.75.75v.21c3.488-2.542 8.438-2.242 11.595.885a8.92 8.92 0 0 1 2.625 7.132 9 9 0 0 1-.098.773M6.75 12c0-.412.338-.75.75-.75h4.14l2.775-3.465a.743.743 0 0 1 1.05-.12c.33.255.383.728.12 1.05l-3 3.758a.76.76 0 0 1-.585.277H7.5a.75.75 0 0 1-.75-.75"/></svg>
